!!!COM: Bach, Johann Sebastian
!!!OPR: Joh. Seb. Bachs vierstimmige Choralgesänge
!!!XEN: Four-part Chorales
!!!OTL: 156. Seelenbräutigam, Jesu, Gottes Lamm
!!!SCT: BWV 409
!!!SCA: Thematisch-systematisches Verzeichnis der musikalischen Werke Johann Sebastian Bach: Bach-Werke-Verzeichnis (Schmieder)
!!!YOR: Bach Gesellschaft Edition xxxix
!!!ENC: Steven Rasmussen
!!!CDT: 1685/3//-1750/7/28/
!!!OCY: Deutschland
!!!YEC: Copyright (c) 1994, 2000 Center for Computer Assisted Research in the Humanities
!!!YEM: Rights to all derivative editions reserved
!!!YEN: United States of America
**kern	**silbe	**kern	**silbe	**kern	**silbe	**kern	**silbe
*I:[BASSO]	*I:[BASSO]	*I:[TENORE]	*I:[TENORE]	*I:[ALTO]	*I:[ALTO]	*I:[SOPRANO]	*I:[SOPRANO]
*clefF4	*	*clefGv2	*	*clefG2	*	*clefG2	*
*k[f#c#g#]	*	*k[f#c#g#]	*	*k[f#c#g#]	*	*k[f#c#g#]	*
*A:	*	*A:	*	*A:	*	*A:	*
*M4/4	*	*M4/4	*	*M4/4	*	*M4/4	*
=1-	=1-	=1-	=1-	=1-	=1-	=1-	=1-
8AAL	.	4c#	.	4e	.	4a	See-
8BBJ	.	.	.	.	.	.	.
8C#L	.	4c#	.	4e	.	4a	-len-
8DJ	.	.	.	.	.	.	.
4E	.	4B	.	4e	.	4g#	-brÃ¤u-
4AA	.	4c#	.	8eL	.	4a	-ti-
.	.	.	.	8f#J	.	.	.
=2	=2	=2	=2	=2	=2	=2	=2
2E;	.	2e;	.	2g#;	.	2b;	-gam,
4F#	.	8c#L	Je-	4f#	.	4a	Je-
.	.	8dJ	.	.	.	.	.
4G#	.	8c#L	-su,	4e	.	4b	-su,
.	.	[8BJ	.	.	.	.	.
=3	=3	=3	=3	=3	=3	=3	=3
4A	Got-	8B]	.	4e	.	4cc#	Got-
.	.	4A	Got-	.	.	.	.
4E	-tes	.	.	4e	.	4b	-tes
.	.	8G#	-tes	.	.	.	.
2AA;	.	2c#;	.	2e;	.	2a;	Lamm,
=4	=4	=4	=4	=4	=4	=4	=4
8AL	.	4e	.	4a	.	4cc#	ha-
8G#J	.	.	.	.	.	.	.
4F#	.	4f#	.	4a	.	4dd	-be
4C#	.	4e	.	4a	.	4ee	Dank
8F#L	.	8f#L	.	8aL	.	4dd	fÃ¼r
8G#J	.	8eJ	.	8bJ	.	.	.
=5	=5	=5	=5	=5	=5	=5	=5
4A	.	4e	.	8bL	.	4cc#	dei-
.	.	.	.	8aJ	.	.	.
8EL	.	4e	.	8g#L	.	4b	-ne
8G#J	.	.	.	8bJ	.	.	.
4A	.	2e	.	8bL	.	2cc#	Lie-
.	.	.	.	16aL	.	.	.
.	.	.	.	16g#JJ	.	.	.
4AA	.	.	.	4a	.	.	.
=6	=6	=6	=6	=6	=6	=6	=6
2E;	.	2e;	.	2g#;	.	2b;	-be,
4F#	.	4c#	.	4.f#	.	4a	die
4G#	.	4B	.	.	.	4b	mich
.	.	.	.	8e	.	.	.
=7	=7	=7	=7	=7	=7	=7	=7
8AL	.	4.A	.	8eL	.	4cc#	zieht
8F#J	.	.	.	8aJ	.	.	.
8D#L	.	.	.	8f#L	.	4b	aus
8E#J	.	8G#	.	8g#J	.	.	.
8F#L	.	8c#L	.	(8g#	.	4a	rei-
8D#J	.	16B#L	.	4f#)	.	.	.
.	.	16c#JJ	.	.	.	.	.
8BB#L	.	8d#L	.	.	.	4g#	-nem
8C#J	.	8c#J	.	8e#	.	.	.
=8	=8	=8	=8	=8	=8	=8	=8
8FF#L	.	2c#	Trie-	8f#L	Trie-	(4.a	Trie-
8GG#	.	.	.	8e#J	.	.	.
8AA	.	.	.	2f#	.	.	.
8BBJ	.	.	.	.	.	8g#)	.
2C#;	.	2c#;	-be	.	.	2g#;	-be
.	.	.	.	4e#;	-be	.	.
=9	=9	=9	=9	=9	=9	=9	=9
4F#	.	4c#	.	4f#	.	4a	von
8C#L	.	4c#	.	4e	.	4a	der
8DJ	.	.	.	.	.	.	.
4E	.	4B	.	4e	.	4g#	SÃ¼n-
8C#L	.	4A	.	4e	.	4a	-den
8AAJ	.	.	.	.	.	.	.
=10	=10	=10	=10	=10	=10	=10	=10
2E;	.	(4A	.	2e;	.	2b;	Schlamm,
.	.	4G#;)	.	.	.	.	.
4F#	.	8AL	.	8c#L	.	4a	Je-
.	.	8dJ	.	8f#J	.	.	.
4G#	.	8c#L	.	4e	.	4b	-su,
.	.	8BJ	.	.	.	.	.
=11	=11	=11	=11	=11	=11	=11	=11
4A	.	8AL	.	8eL	.	4cc#	Got-
.	.	8eJ	.	8aJ	.	.	.
4E	.	8.eL	.	4g#	.	8bL	-tes
.	.	.	.	.	.	8aJ	.
.	.	16dJk	.	.	.	.	.
2AA;	.	2c#;	.	2e;	.	2a;	Lamm.
==|!	==|!	==|!	==|!	==|!	==|!	==|!	==|!
*-	*-	*-	*-	*-	*-	*-	*-
!!!RWG: Key is interpreted using the Humdrum key tool.
!!!URL-pdf: https://s9.imslp.org/files/imglnks/usimg/6/6b/IMSLP24489-PMLP09471-CCARH_Bach_Chorales.pdf#page=109 Musedata edition
!!!URL-pdf: https://s9.imslp.org/files/imglnks/usimg/7/7a/IMSLP04155-Bach_-_BGA_253-438.pdf#page=86 	Bach-Gesellschaft Ausgabe, Band 39 (pp.175-276) Leipzig: Breitkopf und Härtel, 1892. Plate B.W. XXXIX.
!!!END: 1994/07/29
!!!EMD: Converted from MuseData to Humdrum Dec 19, 2000, by Andreas Kornstaedt using muse2kern.
!!!EED: Craig Stuart Sapp
!!!EEV: 2024/03/31
!!!ONB: Some non-unicode characters
!!!filter-keyboard: satb2gs
